src/standard/envelope-manilla.svg

<svg xmlns="http://www.w3.org/2000/svg" viewBox="0 0 36 36">
  <path d="M27 4.38H9a.62.62 0 0 0-.62.62v26a.64.64 0 0 0 .62.63h18a.62.62 0 0 0 .62-.62V5a.62.62 0 0 0-.62-.62Zm-15 23a.6.6 0 0 0-.44.18l-1.94 1.93V11.72a3.6 3.6 0 0 0 2.38.9h5.38v14.76Zm.26 1.24h11.48l1.75 1.76h-15Zm12.18-1.06a.6.6 0 0 0-.44-.18h-5.38V12.62H24a3.6 3.6 0 0 0 2.38-.9v17.77ZM26.38 9A2.39 2.39 0 0 1 24 11.38H12A2.39 2.39 0 0 1 9.62 9V5.62h16.76Z"/>
  <path d="M16 9.62h4a.62.62 0 0 0 0-1.24h-4a.62.62 0 0 0 0 1.24Z"/>
</svg>

<svg id="ece8a903-71c0-4066-a402-83afffe11c93" data-name="Icon" xmlns="http://www.w3.org/2000/svg" viewBox="0 0 36 36">
  <title>Envelope manilla icon - Black</title>
<desc>confidential, mail, post office, shipping, letter, note, send, share, media and documents</desc>
<metadata><?xpacket begin="﻿" id="W5M0MpCehiHzreSzNTczkc9d"?>
<x:xmpmeta xmlns:x="adobe:ns:meta/" x:xmptk="Adobe XMP Core 8.0-c001 1.000000, 0000/00/00-00:00:00        ">
   <rdf:RDF xmlns:rdf="http://www.w3.org/1999/02/22-rdf-syntax-ns#">
      <rdf:Description rdf:about=""
            xmlns:xmp="http://ns.adobe.com/xap/1.0/"
            xmlns:dc="http://purl.org/dc/elements/1.1/"
            xmlns:cq="http://www.day.com/jcr/cq/1.0"
            xmlns:tiff="http://ns.adobe.com/tiff/1.0/">
         <xmp:rhcc-effective-on>2023-12-08T17:37:01.438Z</xmp:rhcc-effective-on>
         <xmp:rhcc-metadata-complete-moderator>pending</xmp:rhcc-metadata-complete-moderator>
         <xmp:rhcc-translation-id>TRA3e5f70a8-be08-4ceb-b734-23d82db937c4</xmp:rhcc-translation-id>
         <xmp:brand-content-type>Icon</xmp:brand-content-type>
         <xmp:CreateDate>2023-12-08T17:37:01.438Z</xmp:CreateDate>
         <xmp:rhcc-effective-on-set-on-upload>true</xmp:rhcc-effective-on-set-on-upload>
         <xmp:rhcc-metadata-complete-uploader>pending</xmp:rhcc-metadata-complete-uploader>
         <xmp:rhcc-file-last-modified>2023-12-08T17:38:14.202Z</xmp:rhcc-file-last-modified>
         <xmp:rhcc-audience>rhcc-audience:internal</xmp:rhcc-audience>
         <xmp:rhcc-rights-restricted>no</xmp:rhcc-rights-restricted>
         <xmp:brand-content-subtype>Icon</xmp:brand-content-subtype>
         <xmp:rhcc-derivative-id>DER3e5f70a8-be08-4ceb-b734-23d82db937c4</xmp:rhcc-derivative-id>
         <xmp:brand-logo-color>Black</xmp:brand-logo-color>
         <xmp:rhcc-notify-portal-subscribers-on-change>yes</xmp:rhcc-notify-portal-subscribers-on-change>
         <dc:format>image/svg+xml</dc:format>
         <dc:modified>2024-02-09T20:20:17.703Z</dc:modified>
         <dc:title>
            <rdf:Alt>
               <rdf:li xml:lang="x-default">Envelope manilla icon - Black</rdf:li>
            </rdf:Alt>
         </dc:title>
         <dc:description>
            <rdf:Alt>
               <rdf:li xml:lang="x-default">confidential, mail, post office, shipping, letter, note, send, share, media and documents</rdf:li>
            </rdf:Alt>
         </dc:description>
         <cq:lastReplicationAction_scene7>Activate</cq:lastReplicationAction_scene7>
         <cq:lastReplicationAction_publish>Activate</cq:lastReplicationAction_publish>
         <cq:lastReplicated_publish>2024-02-09T21:58:03.771Z</cq:lastReplicated_publish>
         <cq:lastReplicatedBy>workflow-process-service</cq:lastReplicatedBy>
         <cq:lastReplicationAction>Activate</cq:lastReplicationAction>
         <cq:lastReplicatedBy_publish>workflow-process-service</cq:lastReplicatedBy_publish>
         <cq:isDelivered>true</cq:isDelivered>
         <cq:lastReplicated>2024-02-09T21:58:03.771Z</cq:lastReplicated>
         <cq:lastReplicatedBy_scene7>workflow-process-service</cq:lastReplicatedBy_scene7>
         <cq:lastReplicated_scene7>2024-02-09T21:58:03.771Z</cq:lastReplicated_scene7>
         <tiff:ImageLength>36</tiff:ImageLength>
         <tiff:ImageWidth>36</tiff:ImageWidth>
      </rdf:Description>
   </rdf:RDF>
</x:xmpmeta>
                                                                                                    
                                                                                                    
                                                                                                    
                                                                                                    
                                                                                                    
                                                                                                    
                                                                                                    
                                                                                                    
                                                                                                    
                                                                                                    
                                 
<?xpacket end="w"?></metadata>
<g>
    <path d="M27,4.38H9A.62.62,0,0,0,8.38,5V31a.64.64,0,0,0,.62.63H27a.62.62,0,0,0,.62-.62V5A.62.62,0,0,0,27,4.38Zm-15,23a.6.6,0,0,0-.44.18L9.62,29.49V11.72a3.6,3.6,0,0,0,2.38.9h5.38V27.38Zm.26,1.24H23.74l1.75,1.76h-15Zm12.18-1.06a.6.6,0,0,0-.44-.18H18.62V12.62H24a3.6,3.6,0,0,0,2.38-.9V29.49ZM26.38,9A2.39,2.39,0,0,1,24,11.38H12A2.39,2.39,0,0,1,9.62,9V5.62H26.38Z"/>
    <path d="M16,9.62h4a.62.62,0,0,0,0-1.24H16A.62.62,0,0,0,16,9.62Z"/>
  </g>
</svg>
